X: 1575
T: Pertev-i Ruhsârına
C: Ahmet Avni Konuk
O: Turkey
F: http://compmusic.upf.edu/node/140
N: zirefkend--kupe--aksaksemai--pertev-i--ahmet_avni_konuk
N: makam= zirefkend
N: form= kupe
N: usul= aksaksemai = 10/8
M: 10/8
L: 1/16
K: C    
Q: 1/4=102
%%MIDI tuningsystem comma53
g4 a2a2 a2ac' _2/4baa4z2  | a2a2 _2/4b2c'2 d'2b2 c'2b3ag2  | \
w:  Per tev_ i  *  *  *  *  *  ruh  |  sâ *  rı na  *  *  *  halk_  | 
a_2/4ba2 b2c'2 b2a2 g2^3/4f3ed2  | 
w:  ı  *  *  ci hân  *  *  *  hep   | 
ac'_2/4b2 a2ag g^3/4ffe fge4z2  | \
w:  ben *  *  de dir    | 
ddd2 e2e2 g2^3/4f2 e2e2 d2c2  | 
w:  Şevk_ *  *  i le  *  *  *  şems_  | 
_2/4B4 A2A3/2G/ ABG2 A2GG ^3/4FEz2  | \
w:  ü  mihr_ *  *  *  *  i  *  â  | 
E^3/4FE2 F2G2 A2G2 F2AG FED2  | 
w:  lem  *  *  de  Zîr_ *  *  *  ef  | 
GBA2 G2G3^3/4FFE FGE4z2  | |


